!!!COM:	Bach, Johann Sebastian
!!!CDT:	1685/02/21/-1750/07/28/
!!!OTL@@DE:	Herr Jesu Christ, du hast bereit't
!!!SCT:	BWV 333
!!!PC#:	226
!!!AGN:	chorale
**kern	**kern	**kern	**kern
*ICvox	*ICvox	*ICvox	*ICvox
*Ibass	*Itenor	*Ialto	*Isoprn
*I"Bass	*I"Tenor	*I"Alto	*I"Soprano
*>[A,A,B]	*>[A,A,B]	*>[A,A,B]	*>[A,A,B]
*>norep[A,B]	*>norep[A,B]	*>norep[A,B]	*>norep[A,B]
*>A	*>A	*>A	*>A
*clefF4	*clefGv2	*clefG2	*clefG2
*k[b-e-]	*k[b-e-]	*k[b-e-]	*k[b-e-]
*g:	*g:	*g:	*g:
*M4/4	*M4/4	*M4/4	*M4/4
*met(c)	*met(c)	*met(c)	*met(c)
*MM100	*MM100	*MM100	*MM100
8GL	4B-	4d	4g
8FJ	.	.	.
=1	=1	=1	=1
4E-	8B-L	4e-	8gL
.	8cJ	.	8aJ
8DL	4d	8fL	4b-
8E-J	.	8gJ	.
4.F	8cL	4f	8aL
.	8B-J	.	8gJ
.	4A	4c	4f
8E-	.	.	.
=2	=2	=2	=2
8DL	8B-L	4f	4b-
8BB-J	8dJ	.	.
4F	16cLL	4f	4a
.	16dJ	.	.
.	[8e-J	.	.
4BB-;	8e-L]	4f;	4b-;
.	8d;J	.	.
4GG	4d	[4g	4b-
=3	=3	=3	=3
8CL	8e-L	8gL]	4a
8D	16dL	8f#J	.
.	16cJJ	.	.
8E-	8B-L	[4g	4g
8DJ	8BJ	.	.
8E-L	8cL	8gL]	4cc
8CJ	8e-J	[8aJ	.
8GGL	4d	8aL]	4b-
8BB-J	.	8gJ	.
=4	=4	=4	=4
8CL	8e-L	8gL	2a
8AAJ	8cJ	16f#L	.
.	.	16eJJ	.
4D	8AL	4f#	.
.	16dL	.	.
.	16cJJ	.	.
4GG;	4B-X;	4d;	4g;
=:|!	=:|!	=:|!	=:|!
*>B	*>B	*>B	*>B
4F#	4d	[4a	4dd
=5	=5	=5	=5
4G	4d	8aL]	4b-
.	.	[8gJ	.
4A	[4c	8gL]	4cc
.	.	8fnXJ	.
4B-	8cL]	4f	4dd
.	[8B-J	.	.
4FnX	8B-L]	8.fL	4cc
.	8AJ	.	.
.	.	16e-XJk	.
=6	=6	=6	=6
8.GL	8.B-L	8dL	4b-
.	.	16eL	.
16AJk	16cJk	16f#JJ	.
8B-L	4d	4g	4b-
8GJ	.	.	.
4D;	4d;	4f#;	4a;
4G	4d	4g	4b-
=7	=7	=7	=7
8DL	4d	4.fnX	4b-
8E-XJ	.	.	.
8FL	4c	.	4a
8F#J	.	8e-X	.
8GL	8B-L	8d	4b-
8BB-J	8dJ	4g	.
8CL	8e-L	.	4a
8DJ	[8dJ	8f#	.
=8	=8	=8	=8
2E-	4.d]	8gL	4g
.	.	8f#J	.
.	.	8gL	4g
.	8c	8GJ	.
4D;	4A;	4d;	4f#;
4GG	4d	8GL	4b-
.	.	[8gJ	.
=9	=9	=9	=9
4D	8.dL	8gL]	4a
.	.	8f#J	.
.	16cJk	.	.
[4E-	8B-L	8gL	4g
.	8AJ	8fJ	.
8E-L]	8GL	4e-	4cc
8FF#J	[8AJ	.	.
8GGL	8AL]	4d	4b-
8BB-J	[8GJ	.	.
=10	=10	=10	=10
8CL	8GL]	8e-L	2a
8AAJ	16F#L	8cJ	.
.	16EJJ	.	.
4D	4F#	8AL	.
.	.	16dL	.
.	.	16cJJ	.
4GG;	4D;	4B;	4g;
==	==	==	==
*-	*-	*-	*-
!!!hum2abc: -Q ''
!!!title: @{PC#}. @{OTL@@DE}
!!!YOR1: 371 vierstimmige Choralges&auml;nge von Johann Sebastian Bach, 
!!!YOR2: 4th ed. by Alfred D&ouml;rffel (Leipzig: Breitkopf und H&auml;rtel, 
!!!YOR2: c.1875). 178 pp. Plate "V.A.10".  reprint: J.S. Bach, 371 Four-Part 
!!!YOR4: Chorales (New York: Associated Music Publishers, Inc., c.1940).
!!!SMS: B&H, 4th ed, Alfred D&ouml;rffel, c.1875, plate V.A.10
!!!EED:  Craig Stuart Sapp
!!!EEV:  2009/05/22
